!!!COM: Palestrina, Giovanni Perluigi da
!!!OPR: Sacerdos et pontifex
!!!OTL: Credo
**kern	**kern	**kern	**kern	**kern
*Ibass	*Itenor	*Itenor	*Icalto	*Icant
!Bassus	!Tenor 2	!Tenor 1	!Altus	!Cantus
*clefF4	*clefGv2	*clefGv2	*clefG2	*clefG2
*k[b-]	*k[b-]	*k[b-]	*k[b-]	*k[b-]
*G:dor	*G:dor	*G:dor	*G:dor	*G:dor
*M4/2	*M4/2	*M4/2	*M4/2	*M4/2
=1	=1	=1	=1	=1
0D	0f	0d	0a	0r
=2	=2	=2	=2	=2
1A	2e	1c#	1a	0r
.	2.f	.	.	.
1B-	.	2.d	2.f	.
.	4e	.	.	.
.	2d	.	.	.
.	.	4e	4g	.
=3	=3	=3	=3	=3
2A	2c	2f	2a	0r
4G	2d	1g	1b-	.
4A	.	.	.	.
4B-	1d	.	.	.
4c	.	.	.	.
[2d	.	2f	2a	.
=4	=4	=4	=4	=4
2d]	1A	1e	1a	0r
2c#	.	.	.	.
[1d	2r	1a	1f	.
.	2a	.	.	.
=5	=5	=5	=5	=5
1d]	4a	1f	2r	1dd
.	4g	.	.	.
.	4f	.	2a	.
.	4e	.	.	.
1r	2d	2f	2a	2dd
.	2B-	2d	2g	2dd
=6	=6	=6	=6	=6
0r	1A	1e	1a	1cc#
.	4G	1g	1b-	2.dd
.	4A	.	.	.
.	4B-	.	.	.
.	4c	.	.	4ee
=7	=7	=7	=7	=7
0r	2d	2r	2a	2ff
.	4B-	4G	1b-	1gg
.	4c	4A	.	.
.	4d	4B-	.	.
.	4e	4c	.	.
.	4f	2d	4a	2ff
.	4g	.	4b-	.
=8	=8	=8	=8	=8
0r	2a	1c	2.cc	1ee
.	1g	.	.	.
.	.	.	4b-	.
.	.	1d	1a	1dd
.	2f#	.	.	.
=9	=9	=9	=9	=9
2r	1g	2r	2b-	2r
1G	.	1d	1g	1b-
.	1r	.	.	.
2A	.	2c	2f	2cc
=10	=10	=10	=10	=10
2B-	0r	2B-	2f	2dd
2G	.	2d	2g	2b-
1F	.	1f	1a	1cc
=11	=11	=11	=11	=11
2D	1r	2f	2a	2dd
2C	.	2g	2cc	2ee-
1G	2r	1g	2b-	2dd
.	[2B-	.	[2b-	[2dd
=12	=12	=12	=12	=12
0r	2B-]	0r	2b-]	2dd]
.	2c	.	2a	2cc
.	2d	.	2f	2a
.	2B-	.	2g	2dd
=13	=13	=13	=13	=13
0r	2c	0r	4a	2cc
.	.	.	4g	.
.	2d	.	2.b-	4b-
.	.	.	.	4a
.	1e-	.	.	4g
.	.	.	4a	4a
.	.	.	[2g	4b-
.	.	.	.	4g
=14	=14	=14	=14	=14
1r	1d	0r	2g]	2a
.	.	.	2f#	2a
2r	2r	.	2g	2b
[2G	[2d	.	[2g	[2b
=15	=15	=15	=15	=15
2G]	2d]	2r	2g]	2b]
2G	2d	2G	2g	2b
1C	1g	2G	1e	1cc
.	.	[2c	.	.
=16	=16	=16	=16	=16
1C	1e	2c]	1g	1cc
.	.	2c	.	.
2G	2d	2B	2g	2dd
2C	2g	2c	2e	2ee
=17	=17	=17	=17	=17
1F	1f	1c	1a	1ff
[1BB-	2.f	2.d	[1b-	[1dd
.	4e	4e	.	.
=18	=18	=18	=18	=18
1BB-]	4d	2f	1b-]	1dd]
.	4B-	.	.	.
.	1f	2F	.	.
1F	.	1A	1a	1cc
.	2f	.	.	.
=19	=19	=19	=19	=19
0G	2.d	2.B-	0g	0b-
.	4c	4c	.	.
.	4B-	1d	.	.
.	4A	.	.	.
.	2G	.	.	.
=20	=20	=20	=20	=20
2D	2A	2d	2f#	2a
2.D	2.f#	2.d	2.a	2.dd
4D	4f#	4d	4a	4dd
2D	2f#	2d	2a	2dd
=21	=21	=21	=21	=21
1G	1g	1d	1b	1dd
1C	1g	1c	1cc	1ee
=22	=22	=22	=22	=22
2F	2f	2A	2cc	2ff
2BB-	2f	2B-	2b-	2dd
2.F	2.f	2.c	2b-	2.cc
.	.	.	2a	.
4F	4f	4c	.	4cc
=23	=23	=23	=23	=23
0BB-	2d	2B-	2b-	2dd
.	1f	1B-	1b-	1dd
.	2f	2B-	2b-	2dd
=24	=24	=24	=24	=24
0r	2f	2B-	2b-	2dd
.	2e	2c	2a	2cc
.	1d	1G	1g	1b-
=25	=25	=25	=25	=25
2r	0c	2A	2e	2a
1F	.	1f	1a	1cc
2F	.	2f	2a	2cc
=26	=26	=26	=26	=26
2F	0r	2f	2a	2cc
2G	.	2d	2g	2b-
1D	.	1d	1f	2a
.	.	.	.	[2b-
=27	=27	=27	=27	=27
2E-	1r	2B-	2.e-	2b-]
2C	.	2A	.	2cc
.	.	.	4e-	.
2BB-	2r	1B-	2d	2dd
2B-	2d	.	2f	2b-
=28	=28	=28	=28	=28
2G	2e-	0r	2g	2b-
2B-	2d	.	4f	2b-
.	.	.	2g	.
1A	1c	.	.	1cc
.	.	.	8f#	.
.	.	.	8e	.
.	.	.	2f#	.
=29	=29	=29	=29	=29
1G	1d	1r	2g	2b-
.	.	.	2b-	2dd
1r	1r	1e-	2g	2b-
.	.	.	2b-	2g
=30	=30	=30	=30	=30
0r	0r	2c	2a	2cc
.	.	2e-	2.g	4b-
.	.	.	.	4a
.	.	2d	.	4b-
.	.	.	4f	4a
.	.	2d	[2f	4a
.	.	.	.	8g
.	.	.	.	8f
=31	=31	=31	=31	=31
1r	1r	1c	2f]	2g
.	.	.	2e	2g
[1F	1c	2.A	2f	[1f
.	.	.	[2a	.
.	.	4B-	.	.
=32	=32	=32	=32	=32
2F]	1A	2c	2a]	1f]
2D	.	2d	2f	.
1E-	1G	2B-	1g	1r
.	.	2c	.	.
=33	=33	=33	=33	=33
[0D	1A	2d	2f	1r
.	.	2f	2a	.
.	1a	2d	2f	1ff
.	.	[2f	2d	.
=34	=34	=34	=34	=34
1D]	2f	4f]	2.a	2dd
.	.	4e	.	.
.	2.a	2d	.	2ff
.	.	.	4b-	.
1r	.	1c	2.cc	1ee
.	4g	.	.	.
.	[2g	.	.	.
.	.	.	4b-	.
=35	=35	=35	=35	=35
1r	2g]	1d	1a	[0dd
.	2f#	.	.	.
2r	2g	1G	2g	.
[2G	[2d	.	[2b-	.
=36	=36	=36	=36	=36
2G]	2d]	0r	2b-]	1dd]
2F#	2d	.	2a	.
2G	2d	.	2b-	1r
2A	2c	.	2a	.
=37	=37	=37	=37	=37
1B-	2d	2r	2f	2r
.	2d	1d	2f	1ff
1A	1r	.	2.a	.
.	.	2c#	.	2ee
.	.	.	4a	.
=38	=38	=38	=38	=38
0r	0r	2d	2a	2ff
.	.	2e	2g	2ee
.	.	2f	2a	2dd
.	.	2g	2b-	2dd
=39	=39	=39	=39	=39
1r	2r	1c	1cc	1ee-
.	1g	.	.	.
2r	.	1d	2b-	2dd
[2d	4f#	.	[2a	[2dd
.	4e	.	.	.
=40	=40	=40	=40	=40
2d]	2f#	0r	2a]	2dd]
2G	2g	.	2b-	2dd
2.A	2.e	.	2.a	2.cc
4A	4e	.	4a	4cc
=41	=41	=41	=41	=41
2A	1f	0r	2a	2cc
1B-	.	.	1f	1dd
.	2g	.	.	.
2c	2g	.	2e	2cc
=42	=42	=42	=42	=42
1F	1a	1r	1f	1cc
1B-	1f	1d	1r	1r
=43	=43	=43	=43	=43
2B-	2d	2f	0r	0r
2A	2c	2f	.	.
1G	1B-	2e-	.	.
.	.	[2d	.	.
=44	=44	=44	=44	=44
2F	2A	2d]	1r	1r
2E-	2G	2c	.	.
1D	1A	2d	2r	2r
.	.	2d	2a	2ff
=45	=45	=45	=45	=45
0r	0r	2d	2a	2ff
.	.	2c	2a	2ee
.	.	1B-	1b-	1dd
=46	=46	=46	=46	=46
1r	1r	2F	2a	2cc
.	.	2G	2g	2b-
2r	2r	1d	4f	1a
.	.	.	4g	.
2d	2f	.	4a	.
.	.	.	4b-	.
=47	=47	=47	=47	=47
4c	4e	1A	0cc	1a
4B-	4d	.	.	.
4A	4c	.	.	.
4G	4B-	.	.	.
2F	2A	2r	.	2r
2E	2c	2e	.	2gg
=48	=48	=48	=48	=48
1D	1d	4a	1f	4ff
.	.	4g	.	4ee
.	.	4f	.	4dd
.	.	4e	.	4cc
2D	2.f	2d	2r	2b-
2F	.	2c	2cc	2a
.	4e	.	.	.
=49	=49	=49	=49	=49
1G	4d	2r	4b-	1.g
.	4c	.	4a	.
.	2B-	2d	4g	.
.	.	.	4f	.
1C	2.c	4c	2e	.
.	.	4B-	.	.
.	.	4A	2e	[2a
.	4B-	4G	.	.
=50	=50	=50	=50	=50
0D	2A	2F	2.d	2a]
.	2d	2G	.	4b-
.	.	.	4e	4cc
.	1d	4A	4f#	1dd
.	.	4B-	2g	.
.	.	2A	.	.
.	.	.	4f#	.
=51	=51	=51	=51	=51
1G	1d	1G	1g	1b
1r	1r	1r	1r	1r
=52	=52	=52	=52	=52
0r	1e	1c	1g	1cc
.	2f	2A	2a	2cc
.	2e	2A	2a	2cc
=53	=53	=53	=53	=53
0r	2d	1B-	1f	1dd
.	2.f	.	.	.
.	.	1G	1g	1b-
.	8e	.	.	.
.	8d	.	.	.
.	2e	.	.	.
=54	=54	=54	=54	=54
2r	2f	2F	2cc	1a
2F	2c	2f	2cc	.
2F	2d	2f	2a	1r
2F	2c	2f	2a	.
=55	=55	=55	=55	=55
1G	1B-	2e-	1g	0r
.	.	2.d	.	.
1E-	1G	.	1g	.
.	.	8c	.	.
.	.	8B-	.	.
.	.	2c	.	.
=56	=56	=56	=56	=56
0D	2A	2d	2f	2r
.	1f	1d	1a	1dd
.	2f	2d	2a	2dd
=57	=57	=57	=57	=57
0r	2g	2e-	2g	2b-
.	2g	2e-	2b-	2b-
.	2e-	2c	2b-	2cc
.	2e-	2c	2a	2cc
=58	=58	=58	=58	=58
1r	1f	1B-	1b-	1dd
1BB-	1f	1B-	1b-	1dd
=59	=59	=59	=59	=59
1F	2f	1c	1a	1cc
.	2F	.	.	.
1C	1G	1c	2g	1ee-
.	.	.	[2g	.
=60	=60	=60	=60	=60
1D	0d	1A	2g]	1dd
.	.	.	4f#	.
.	.	.	4e	.
1D	.	1A	2f#	1dd
.	.	.	2f#	.
=61	=61	=61	=61	=61
0G	0d	0G	0g	0b
*	*	*	*	*-
!! Crucifixus
*Itenor	*Itenor	*Icalto	*Icant
!Tenor 2	!Tenor 1	!Altus	!Cantus
*clefGv2	*clefGv2	*clefG2	*clefG2
*k[b-]	*k[b-]	*k[b-]	*k[b-]
*G:dor	*G:dor	*G:dor	*G:dor
*M4/2	*M4/2	*M4/2	*M4/2
=62	=62	=62	=62
0G	0g	0b	0dd
=63	=63	=63	=63
1G	1g	1b	1dd
1c	1g	1cc	1ee-
=64	=64	=64	=64
1d	2.f	1a	1dd
.	4e	.	.
2.B-	1d	2b-	2.dd
.	.	2f	.
4A	.	.	4cc
=65	=65	=65	=65
2G	0r	2g	2b-
2F#	.	2a	2a
2.G	.	[1b-	4g
.	.	.	4a
.	.	.	4b-
4A	.	.	4cc
=66	=66	=66	=66
4B-	2.f	2b-]	4dd
4c	.	.	4ee
4d	.	4a	1ff
4e	4e	4g	.
4f	2d	2.a	.
4g	.	.	.
[2a	2c#	.	[2ee
.	.	4g	.
=67	=67	=67	=67
4a]	1d	4f	4ee]
4d	.	4g	4dd
2f	.	4a	1dd
.	.	4b-	.
1e	1A	1a	.
.	.	.	2cc#
=68	=68	=68	=68
1d	2B-	2f	2dd
.	2G	2b-	2dd
1r	2.d	2a	2.ff
.	.	2f	.
.	4c	.	4ee
=69	=69	=69	=69
1r	2B-	2f	2dd
.	2A	2f	2cc
2r	1G	2g	1b-
2g	.	[2d	.
=70	=70	=70	=70
2.f	1d	4d]	2.a
.	.	4e	.
.	.	2.f	.
4e	.	.	4g
2d	1r	.	4a
.	.	4d	4b-
2c	.	2e	[2a
=71	=71	=71	=71
1B-	2r	1d	2a]
.	1d	.	2g
1A	.	1e	1a
.	2c	.	.
=72	=72	=72	=72
1B-	1.f	4d	2r
.	.	4e	.
.	.	4f	1dd
.	.	4g	.
1A	.	2.a	.
.	2e	.	[2cc
.	.	4g	.
=73	=73	=73	=73
1B-	2.d	2f	2cc]
.	.	1d	1b-
.	4e	.	.
1F	1f	.	.
.	.	[2c	[2a
=74	=74	=74	=74
1G	2e	4c]	2a]
.	.	4B	.
.	2d	2B	1g
1A	2c	1c	.
.	[2c	.	2f#
=75	=75	=75	=75
1G	2c]	1d	0g
.	2B	.	.
1r	1c	1e	.
!! Et resurrexit
*Itenor	*Itenor	*Icalto	*Icant
!Tenor 2	!Tenor 1	!Altus	!Cantus
*clefGv2	*clefGv2	*clefG2	*clefG2
*k[b-]	*k[b-]	*k[b-]	*k[b-]
*G:dor	*G:dor	*G:dor	*G:dor
*M3/2	*M3/2	*M3/2	*M3/2
=76	=76	=76	=76
2c	2c	2e	2g
2A	2c	2e	2a
2G	2d	2g	2b
=77	=77	=77	=77
1F	1f	1a	1cc
2f	2d	2a	2dd
=78	=78	=78	=78
2.g	2.c	2.cc	2.ee
4g	4c	4cc	4ee
2c	2A	2cc	2ff
=79	=79	=79	=79
1d	1G	1b-	1gg
2d	2d	2a	2ff
=80	=80	=80	=80
2e	2c#	2a	2ee
2f	2d	2a	2dd
2e	2A	2a	2cc#
=81	=81	=81	=81
2d	2B-	4g	2dd
.	.	4f	.
2.g	2.c	4e	2.ee
.	.	4d	.
.	.	4e	.
4f	4d	4f	4dd
=82	=82	=82	=82
2d	2B-	2g	1dd
1e	1A	1a	.
.	.	.	2cc#
=83	=83	=83	=83
1f#	1d	1a	1dd
2r	2r	2r	2r
!! Et ascendit
*Itenor	*Itenor	*Icalto	*Icant
!Tenor 2	!Tenor 1	!Altus	!Cantus
*clefGv2	*clefGv2	*clefG2	*clefG2
*k[b-]	*k[b-]	*k[b-]	*k[b-]
*G:dor	*G:dor	*G:dor	*G:dor
*M4/2	*M4/2	*M4/2	*M4/2
=84	=84	=84	=84
1.d	1G	1g	1b-
.	1d	1f	1a
[2f	.	.	.
=85	=85	=85	=85
2f]	1c	1g	1cc
2e	.	.	.
2f	2B-	2b-	2dd
2f	2d	2a	2dd
=86	=86	=86	=86
1g	1c	1cc	1ee
2a	1f	2cc	2ff
2d	.	2f	2ff
=87	=87	=87	=87
2c	0r	2g	2ee
2B-	.	2b-	2dd
2f	.	2.a	2.cc
2c	.	.	.
.	.	4g	4b-
=88	=88	=88	=88
1d	2r	2f	2a
.	2B-	4b-	2dd
.	.	4a	.
1r	2c	4g	2cc
.	.	4f	.
.	2e-	[2g	4b-
.	.	.	4a
=89	=89	=89	=89
0r	2.d	4g]	2b-
.	.	4f	.
.	.	1f	2a
.	4c	.	.
.	2B-	.	1g
.	2c	2e	.
=90	=90	=90	=90
2r	2F	2.f	[0a
2f	2F	.	.
.	.	8e	.
.	.	8d	.
2.e	2.A	1c	.
4d	4B-	.	.
=91	=91	=91	=91
2e	2c	0r	1a]
2f	2d	.	.
2g	2e	.	1r
2a	[2f	.	.
=92	=92	=92	=92
4d	4f]	0r	0r
4e	4e	.	.
4f	1d	.	.
4d	.	.	.
1e	.	.	.
.	2c#	.	.
=93	=93	=93	=93
1f	2d	2r	2r
.	2d	2B-	2b-
1r	2.f	2.d	2.a
.	4e	4e	4g
=94	=94	=94	=94
0r	2d	2f	2a
.	2B-	2g	2b-
.	2A	2a	2cc
.	[2G	[2b-	2dd
=95	=95	=95	=95
1r	4G]	4b-]	4g
.	4F	4a	4a
.	2G	1g	4b-
.	.	.	4g
2r	1d	.	1a
[2d	.	2f#	.
=96	=96	=96	=96
2d]	1G	2g	1b
1g	.	2d	.
.	1c	1e	1cc
[2a	.	.	.
=97	=97	=97	=97
2a]	1d	1f#	1a
2.d	.	.	.
.	1G	2g	1b-
8e	.	.	.
8f#	.	.	.
[2g	.	2d	.
=98	=98	=98	=98
4g]	1G	2.g	1b-
4f	.	.	.
4e	.	.	.
4d	.	4f	.
4c#	1A	4e	[1a
2d	.	4d	.
.	.	2e	.
4c#	.	.	.
=99	=99	=99	=99
2d	2r	2f	1a]
1f	1d	1a	.
.	.	.	1r
2e	2c#	2a	.
=100	=100	=100	=100
1f	1d	1a	0r
2d	2G	2b-	.
2f	2d	2a	.
=101	=101	=101	=101
2e	2c	2a	0r
2d	2B-	2g	.
2e	1A	1cc	.
2f	.	.	.
=102	=102	=102	=102
2.g	1G	2.b-	2r
.	.	.	1dd
4f	.	4a	.
1e	2r	4g	.
.	.	4f	.
.	[2g	2g	2cc#
=103	=103	=103	=103
1d	2g]	2a	1dd
.	2f	2dd	.
1r	2e	2cc	2g
.	4d	2b-	2dd
.	4e	.	.
=104	=104	=104	=104
1r	2f	2a	2cc
.	2g	1g	2b-
2r	1d	.	2.a
[2d	.	4f	.
.	.	4e	4g
=105	=105	=105	=105
2d]	2r	2f	4a
.	.	.	4b-
2c	1g	2e	2cc
1d	.	1d	1a
.	2f#	.	.
=106	=106	=106	=106
2G	2g	2r	1r
2d	4f	1a	.
.	4f	.	.
2c	2e	.	2r
2B-	2d	2g	[2dd
=107	=107	=107	=107
2A	1e	1a	2dd]
2A	.	.	2cc#
2r	1f	2d	1dd
2d	.	2f	.
=108	=108	=108	=108
2c	2r	2e	2g
2B-	1g	2d	2dd
1A	.	4e	[1cc
.	.	4d	.
.	2f#	4c	.
.	.	4d	.
=109	=109	=109	=109
1G	1g	4e	2cc]
.	.	4f#	.
.	.	1g	2b-
2r	1d	.	1a
2d	.	2f#	.
=110	=110	=110	=110
2d	2G	1g	1b
2G	2g	.	.
2.e-	2g	1c	2r
.	2c	.	2gg
4d	.	.	.
=111	=111	=111	=111
1.c	2.e-	1g	2gg
.	.	.	2cc
.	4d	.	.
.	2c	[1g	2ee-
2B	2d	.	2dd
=112	=112	=112	=112
0c	0e-	2g]	0cc
.	.	2c	.
.	.	1g	.
=113	=113	=113	=113
0G	0d	0g	0b
*-	*-	*-	*-
!! Et in Spiritum
**kern	**kern	**kern	**kern	**kern
*Ibass	*Itenor	*Itenor	*Icalto	*Icant
!Bassus	!Tenor 2	!Tenor 1	!Altus	!Cantus
*clefF4	*clefGv2	*clefGv2	*clefG2	*clefG2
*k[b-]	*k[b-]	*k[b-]	*k[b-]	*k[b-]
*G:dor	*G:dor	*G:dor	*G:dor	*G:dor
*M4/2	*M4/2	*M4/2	*M4/2	*M4/2
=114	=114	=114	=114	=114
1D	1d	1f	1a	0r
2A	2c#	2e	2a	.
[2G	[2d	[2g	[2b-	.
=115	=115	=115	=115	=115
4G]	4d]	4g]	4b-]	0r
4G	4d	4g	4b-	.
2G	2d	2g	2b-	.
1F	1f	1c	1a	.
=116	=116	=116	=116	=116
2C	2e	2c	2g	0r
1F	1f	2c	1a	.
.	.	2A	.	.
2D	2f	[2d	2a	.
=117	=117	=117	=117	=117
1.A	1.e	2d]	1.a	0r
.	.	4c#	.	.
.	.	4B	.	.
.	.	2c#	.	.
2D	2f#	2d	2a	.
=118	=118	=118	=118	=118
2D	2f#	2d	2a	0r
1G	1g	2d	1b-	.
.	.	2e	.	.
2A	2c	[2f	2a	.
=119	=119	=119	=119	=119
2B-	2d	2f]	1g	1r
2c	1c	2e	.	.
1F	.	2f	2f	2r
.	[2F	[2f	[2a	[2cc
=120	=120	=120	=120	=120
0r	2F]	2f]	2a]	2cc]
.	2F	2f	2a	2cc
.	1c	1e	1g	1cc
=121	=121	=121	=121	=121
0r	2B-	2f	2b-	2dd
.	1F	1f	1a	1cc
.	2G	2d	2g	2b-
=122	=122	=122	=122	=122
0r	1A	1c	2e	1a
.	.	.	1f	.
.	2B-	2d	.	2g
.	2c	[2g	2e	2g
=123	=123	=123	=123	=123
1r	1A	2g]	1c	1cc
.	.	2f#	.	.
2r	1G	2g	2d	2b-
[2G	.	[2g	[2b-	[2dd
=124	=124	=124	=124	=124
2G]	2.d	2g]	2b-]	2dd]
2G	.	2g	2b-	2dd
.	4d	.	.	.
1B-	1d	1f	1b-	1dd
=125	=125	=125	=125	=125
2BB-	2B-	2f	2b-	2dd
2BB-	2B-	2f	2b-	2dd
2.F	2.c	2.f	2.a	2.cc
4F	4c	4f	4a	4cc
=126	=126	=126	=126	=126
2F	2c	2f	2a	2cc
1C	1c	1e	1g	1cc
2C	2c	2e	2g	2cc
=127	=127	=127	=127	=127
1F	1A	1f	1a	1cc
1D	1F	1f	1a	1dd
=128	=128	=128	=128	=128
0E-	0G	0e-	0g	0b-
=129	=129	=129	=129	=129
1BB-	1B-	1d	1f	1b-
2r	2r	2r	2r	2r
2F	2A	2f	2a	2cc
=130	=130	=130	=130	=130
2F	2c	2f	2a	2cc
2F	2c	2f	2a	2cc
1F	1A	1f	1a	1cc
=131	=131	=131	=131	=131
1D	1F	1f	1a	1dd
1E-	1G	1e-	1g	1b-
=132	=132	=132	=132	=132
1BB-	1B-	2d	1f	2b-
.	.	1d	.	1ff
1r	1r	.	2d	.
.	.	2c	2e	2ee
=133	=133	=133	=133	=133
0r	0r	2B-	2f	2dd
.	.	2A	2f	2cc
.	.	2G	2g	2b-
.	.	[2F	[2a	[2cc
=134	=134	=134	=134	=134
0r	0r	2F]	2a]	2cc]
.	.	2G	1g	2b-
.	.	1d	.	1a
.	.	.	2f#	.
=135	=135	=135	=135	=135
2r	2r	2G	[0g	1g
2G	2d	2B-	.	.
2G	2d	2B-	.	1r
2G	2d	2B-	.	.
=136	=136	=136	=136	=136
1C	1e-	1c	0g]	0r
2G	2d	2B-	.	.
2G	2d	2B-	.	.
=137	=137	=137	=137	=137
2F	2d	2A	1r	1r
2E-	2c	2G	.	.
2D	2d	1A	2r	2r
2D	2f#	.	2a	2dd
=138	=138	=138	=138	=138
2D	2f#	0r	2a	2dd
2G	2g	.	2b-	2dd
2.C	2.g	.	2.cc	2.ee-
4C	4g	.	4cc	4ee-
=139	=139	=139	=139	=139
2D	2f#	0r	2a	2dd
2d	2f#	.	2a	2dd
2G	2g	.	2b-	2dd
2A	2e	.	2a	2cc#
=140	=140	=140	=140	=140
1B-	2d	2r	1f	1dd
.	2d	2f	.	.
2r	2.d	2.f	2r	2r
2B-	.	.	2b-	2dd
.	4d	4f	.	.
=141	=141	=141	=141	=141
2.B-	0d	1.f	2.b-	2.dd
4B-	.	.	4b-	4dd
1B-	.	.	2b-	2dd
.	.	2d	2f	2dd
=142	=142	=142	=142	=142
1r	1r	2e-	2g	2b-
.	.	2B-	1b-	2dd
1F	2r	1f	.	1cc
.	2f	.	2a	.
=143	=143	=143	=143	=143
2G	2d	1B-	1b-	1b-
1B-	2d	.	.	.
.	1c	1F	1r	1r
2A	.	.	.	.
=144	=144	=144	=144	=144
2B-	2B-	2r	2r	1.dd
1BB-	1d	1f	1b-	.
2BB-	2d	2f	2b-	2dd
=145	=145	=145	=145	=145
2D	2d	2f	2a	2dd
2D	2d	2f	2a	2dd
1C	1G	2g	1cc	1ee-
.	.	2c	.	.
=146	=146	=146	=146	=146
1BB-	1B-	4d	1f	1dd
.	.	4e	.	.
.	.	1f	.	.
2F	2A	.	2a	2cc
2F	2A	2c	2a	2cc
=147	=147	=147	=147	=147
1C	1c	1e-	1g	1cc
1G	4B-	2d	2g	2dd
.	4A	.	.	.
.	4G	[2g	[2b-	[2dd
.	4A	.	.	.
=148	=148	=148	=148	=148
0r	4B-	2g]	2b-]	2dd]
.	4c	.	.	.
.	2d	2f	2a	2dd
.	2r	1e-	1g	1cc
.	[2g	.	.	.
=149	=149	=149	=149	=149
1r	2g]	1d	1a	1dd
.	2f#	.	.	.
[1G	2g	[1B	2r	2r
.	2d	.	[2g	[2dd
=150	=150	=150	=150	=150
2G]	2.d	2B]	2g]	2dd]
2G	.	2B	2g	2dd
.	4d	.	.	.
2G	2d	2B	2g	2dd
2G	2d	2B	2g	2dd
=151	=151	=151	=151	=151
1C	2.e	1c	2g	1gg
.	.	.	4c	.
.	4f	.	4d	.
1C	2g	1c	4e	2ee
.	.	.	4f	.
.	2e	.	2g	[2cc
=152	=152	=152	=152	=152
2F	2f	2A	2a	4cc]
.	.	.	.	4a
2D	2f	2A	2a	1dd
1AA	1e	1A	1a	.
.	.	.	.	2cc#
=153	=153	=153	=153	=153
2D	2d	2A	2f#	0dd
2D	2d	2A	2f#	.
1G	1d	1B-	1g	.
=154	=154	=154	=154	=154
2D	2d	2A	2f	0r
2G	2d	2B-	2g	.
2F	2f	2c	2a	.
2D	2f	2d	2b-	.
=155	=155	=155	=155	=155
2.F	2.f	2.c	2.a	1r
4G	4d	4B-	4g	.
1D	[1d	2A	2f#	2r
.	.	2d	2f#	2a
=156	=156	=156	=156	=156
0r	1d]	1G	1g	1b-
.	1r	2d	2f	2a
.	.	2g	2g	2b-
=157	=157	=157	=157	=157
0r	0r	2f	2a	2cc
.	.	2d	2b-	2dd
.	.	2.f	2.a	2.cc
.	.	4g	4g	4b-
=158	=158	=158	=158	=158
0r	2r	1d	2f	2a
.	4G	.	2g	4b-
.	4A	.	.	4cc
.	4B-	2r	2.f	4dd
.	4c	.	.	4ee
.	[2d	4d	.	[2ff
.	.	4e	4g	.
=159	=159	=159	=159	=159
0r	4d]	4f	4a	4ff]
.	4c	4g	4b-	4ee
.	4A	2.a	1cc	4cc
.	4B-	.	.	4dd
.	1c	.	.	1ee
.	.	4g	.	.
.	.	[2g	2b-	.
=160	=160	=160	=160	=160
0D	1d	2g]	0a	1dd
.	.	4f#	.	.
.	.	4e	.	.
.	2r	1f#	.	2.dd
.	[2d	.	.	.
.	.	.	.	4cc
=161	=161	=161	=161	=161
0G	4d]	1g	2g	4b-
.	4c	.	.	4a
.	4B-	.	2.b-	4g
.	4A	.	.	4a
.	4G	2r	.	4b-
.	4A	.	4a	4cc
.	2B-	[2g	4g	2dd
.	.	.	4f	.
=162	=162	=162	=162	=162
0C	2.c	4g]	4e-	0cc
.	.	4f	4d	.
.	.	4e-	2c	.
.	4d	4d	.	.
.	1e-	1c	1g	.
=163	=163	=163	=163	=163
0G	0d	0B	0g	0dd
==	==	==	==	==
*-	*-	*-	*-	*-
!!!CDT: 1525/^1526/-1594/2/2
!!!OCY: Italia
!!!AGN: Mass (Paraphrase)
!!!AST: renaissance, vocal
!!!ASW: Antiphon
!!!PWK: Masses, Book 7
!!!RNB: Cadence finals: C,D
!!!YOR: Le Opere Complete, v. 23, p. 82
!!!YOO: Rome, Italy: Fratelli Scalera
!!!END: 1992//
!!!EED: John Miller
!!!YEC: Copyright 2000, John Miller
!!!YEN: United States of America
!!!YEM: Rights to all derivative electronic formats reserved.
!!!YEM: Refer to licensing agreement for further details.
!!!YEM: This file must be accompanied by the licensing agreement.
!!!YEM: A copy of the licensing agreement may be found at http://www.music-cog.ohio-state.edu/HumdrumDatabases/Palestrina/license.txt
!!!EMD: converted to Humdrum by Bret Aarden
